X: 15
T: the Wind-Baby.
C: Anon.
%R: _
B: "The Everyday Song Book", 1927
F: http://www.library.pitt.edu/happybirthday/pdf/The_Everyday_Song_Book.pdf
Z: 2015 John Chambers <jc:trillian.mit.edu>
M: 4/8
L: 1/8
K: G
% - - - - - - - - - - - - - - - - - - - - - - - - - - - - -
D | E2 F G | A2 B c | d4 | B2 G2 | E2 E E |
w:1.~In sum-mer the lit-tle wind-ba-by Is pleas-ant as
w:2.~In au-tumn he gets a bit rough-er, And blows the leaves
%
A2 F E | D4- | D3 D | E2 F G | A2 B c |
w: ev-er you please;_ And then is the time that we
w: hith-er and you;_ In win-ter he piles up the
%
d4 | B2 e2 | d2 B G | B2 A B | G4- | G3 |]
w: call him A zeph-yr, and some-times a breeze.*
w: snow-drifts And thinks it most cap-i-tal fun.*
% - - - - - - - - - - - - - - - - - - - - - - - - - - - - -
%%text Copyright, 1910, by the Cable Company.
